X: 16190
T: Green Pigeon, The
R: reel
M: 4/4
K: Dmajor
FDAF GFED|FDAF G2AG|FDAF GFEc|dBcA G3 A|
FDAF GFED|FDAF G3 A|FDAF GFEc|dBcA G2FA||
A3B cAGE|A3B cded|cAAB cAGE|dBcA G3B|
EAAB cAGE|A3B cdeg|f3d e3c|dcAF G2 AG||

